X:1
T:Title
%%score { 1 | ( 2 3 ) }
L:1/8
Q:1/4=90
M:6/8
K:D
V:1 treble nm="Grand Piano"
V:2 bass 
V:3 bass 
V:1
 [FA]2 [GB] [FA]FD | [Fd][Ac][CGB] .[DFA]3 | [A,CEG]2 [G,DFA] [CEG]EC | BAG F2 F/G/ | %4
w: J.~H.~Hall * * * *||||
 [FA]2 [GB] [FA]FD | [Fd][Ac][CGB] .[DFA]3 | [Fd]3 [A,DF]3 | [DFA][EG][K:bass][G,CE] [F,D]3 | %8
w: ||||
 [Fd]2 [Fd] [FA]2 F | G2 G G2 A/B/ | c2 c [CG]2 [CG]/[EG]/ | [GB][FA][A,EG] .[A,DF]3 | %12
w: ||||
 [DFA]2 [DGB] [DFA][DF][F,D] | [Fd][Ac][CGB] .[DFA]3 | [Fd]3 [A,DF]3 | %15
w: |||
 [DFA][EG][K:bass][G,CE] [F,D]3 |] %16
w: |
V:2
 [D,D]2 [D,D] [D,D][D,A,D][D,F,] | D,-[D,B,]D, D,2[K:treble] E/F/ | A,,2 A,, A,,[C,A,C][E,A,] | %3
 [G,A,][F,B,][E,A,C] .[D,A,D]3 | [D,D]2 [D,D] [D,D][D,A,D][D,F,] | D,-[D,B,]D, D,2[K:treble] B/c/ | %6
 [D,A,]3 D,3 | z A,A,, D,3 | [D,A,]2 [D,A,] [D,D]2 [D,A,D] | [E,A,C]2 [E,A,C] .[E,A,C]3 | %10
 [A,E]2 [A,E] [A,,A,]2 [A,,A,]/[A,,A,]/ | A,-[B,,A,]C, D,2[K:treble] F/G/ | D,2 D, z A,D, | %13
 A,B,D, D,2[K:treble] B/c/ | [D,A,]3 D,3 | z A,A,, D,3 |] %16
V:3
 x6 | .A,3 z3[K:treble] | x6 | x6 | x6 | .A,3 z3[K:treble] | x6 | .A,,3 z3 | x6 | x6 | x6 | %11
 .A,,3 z3[K:treble] | z3 .D,3 | .D,3 z3[K:treble] | x6 | .A,,3 z3 |] %16

